src/assets/icons/contactEmail.svg

<svg width="83" height="82" viewBox="0 0 83 82" fill="none" xmlns="http://www.w3.org/2000/svg">
    <rect x="1" y="0.5" width="81" height="81" rx="40.5" stroke="url(#paint0_linear_104_12838)"/>
    <rect x="1" y="0.5" width="81" height="81" rx="40.5" stroke="url(#paint1_linear_104_12838)"/>
    <rect x="11" y="10.5" width="61" height="61" rx="30.5" stroke="url(#paint2_linear_104_12838)"/>
    <rect x="11" y="10.5" width="61" height="61" rx="30.5" stroke="url(#paint3_linear_104_12838)"/>
    <path d="M26.625 36.2812V48.4375C26.625 50.7847 28.5278 52.6875 30.875 52.6875H52.125C54.4722 52.6875 56.375 50.7847 56.375 48.4375V36.2812L43.7274 44.0644C42.3614 44.905 40.6386 44.905 39.2726 44.0644L26.625 36.2812Z"
          fill="#004FE1"/>
    <path d="M56.375 33.7861V33.5625C56.375 31.2153 54.4722 29.3125 52.125 29.3125H30.875C28.5278 29.3125 26.625 31.2153 26.625 33.5625V33.7861L40.3863 42.2546C41.0693 42.6749 41.9307 42.6749 42.6137 42.2546L56.375 33.7861Z"
          fill="#004FE1"/>
    <defs>
        <linearGradient id="paint0_linear_104_12838" x1="7.25" y1="86.5" x2="86.25" y2="-5.5"
                        gradientUnits="userSpaceOnUse">
            <stop stop-color="#004FE1"/>
            <stop offset="0.323723" stop-color="#004FE1" stop-opacity="0"/>
        </linearGradient>
        <linearGradient id="paint1_linear_104_12838" x1="82.25" y1="-10.5" x2="7.25" y2="82"
                        gradientUnits="userSpaceOnUse">
            <stop stop-color="#004FE1"/>
            <stop offset="0.576615" stop-color="#004FE1" stop-opacity="0"/>
        </linearGradient>
        <linearGradient id="paint2_linear_104_12838" x1="3.75" y1="13.5" x2="72.25" y2="72"
                        gradientUnits="userSpaceOnUse">
            <stop stop-color="#004FE1"/>
            <stop offset="0.323723" stop-color="#004FE1" stop-opacity="0"/>
        </linearGradient>
        <linearGradient id="paint3_linear_104_12838" x1="84.75" y1="86" x2="12.75" y2="35"
                        gradientUnits="userSpaceOnUse">
            <stop stop-color="#004FE1"/>
            <stop offset="0.576615" stop-color="#004FE1" stop-opacity="0"/>
        </linearGradient>
    </defs>
</svg>

<svg xmlns="http://www.w3.org/2000/svg" width="83" height="82" fill="none"><rect width="81" height="81" x="1" y=".5" stroke="url(#a)" rx="40.5"/><rect width="81" height="81" x="1" y=".5" stroke="url(#b)" rx="40.5"/><rect width="61" height="61" x="11" y="10.5" stroke="url(#c)" rx="30.5"/><rect width="61" height="61" x="11" y="10.5" stroke="url(#d)" rx="30.5"/><path fill="#004FE1" d="M26.625 36.281v12.157a4.25 4.25 0 0 0 4.25 4.25h21.25a4.25 4.25 0 0 0 4.25-4.25V36.28l-12.648 7.783a4.25 4.25 0 0 1-4.454 0z"/><path fill="#004FE1" d="M56.375 33.786v-.224a4.25 4.25 0 0 0-4.25-4.25h-21.25a4.25 4.25 0 0 0-4.25 4.25v.224l13.761 8.469c.683.42 1.545.42 2.228 0z"/><defs><linearGradient id="a" x1="7.25" x2="86.25" y1="86.5" y2="-5.5" gradientUnits="userSpaceOnUse"><stop stop-color="#004FE1"/><stop offset=".324" stop-color="#004FE1" stop-opacity="0"/></linearGradient><linearGradient id="b" x1="82.25" x2="7.25" y1="-10.5" y2="82" gradientUnits="userSpaceOnUse"><stop stop-color="#004FE1"/><stop offset=".577" stop-color="#004FE1" stop-opacity="0"/></linearGradient><linearGradient id="c" x1="3.75" x2="72.25" y1="13.5" y2="72" gradientUnits="userSpaceOnUse"><stop stop-color="#004FE1"/><stop offset=".324" stop-color="#004FE1" stop-opacity="0"/></linearGradient><linearGradient id="d" x1="84.75" x2="12.75" y1="86" y2="35" gradientUnits="userSpaceOnUse"><stop stop-color="#004FE1"/><stop offset=".577" stop-color="#004FE1" stop-opacity="0"/></linearGradient></defs></svg>
